_includes/icons/ios-js.svg

<svg fill="#666" height="50" viewBox="0 0 50 50" width="50" xmlns="http://www.w3.org/2000/svg"><path d="m5.953125 4c-.511719 0-1.03125.1875-1.398437.554688-.367188.367187-.554688.886718-.554688 1.398437v38.09375c0 .507813.1875 1.03125.554688 1.398438.367187.367187.886718.554687 1.398437.554687h38.09375c.507813 0 1.03125-.1875 1.398438-.554687.367187-.367188.554687-.886719.554687-1.398438v-38.09375c0-.511719-.1875-1.03125-.554687-1.398437-.367188-.367188-.886719-.554688-1.398438-.554688zm.046875 2h38v38h-38zm21.9375 13.8125c-2.113281 0-3.191406 1.347656-3.191406 2.96875 0 .914063.523437 1.980469 1.90625 2.820313.851562.554687 1.300781.914062 1.300781 1.648437 0 .660156-.449219 1.140625-1.378906 1.140625-.570313 0-1.257813-.164062-1.664063-.390625l-.285156 1.695313c.328125.195312 1.125.40625 1.9375.40625 1.976563 0 3.34375-1.214844 3.34375-3.058594 0-1.066406-.496094-2.085938-1.832031-2.898438-1.09375-.660156-1.394531-.972656-1.394531-1.574218 0-.539063.40625-1.050782 1.246093-1.050782.570313 0 1.003907.164063 1.289063.34375l.316406-1.691406c-.300781-.179687-.933594-.359375-1.59375-.359375zm-6.386719.089844v6.972656c0 1.304688-.480468 1.53125-1.050781 1.53125-.253906 0-.449219-.015625-.644531-.074219l-.167969 1.648438c.226563.089844.585938.148437.992188.148437 1.441406 0 2.851562-.433593 2.851562-3.34375v-6.882812z"/></svg>

<svg xmlns="http://www.w3.org/2000/svg" viewBox="0 0 50 50" width="50" height="50" fill="#666"><path d="M 5.953125 4 C 5.441406 4 4.921875 4.1875 4.554688 4.554688 C 4.1875 4.921875 4 5.441406 4 5.953125 L 4 44.046875 C 4 44.554688 4.1875 45.078125 4.554688 45.445313 C 4.921875 45.8125 5.441406 46 5.953125 46 L 44.046875 46 C 44.554688 46 45.078125 45.8125 45.445313 45.445313 C 45.8125 45.078125 46 44.558594 46 44.046875 L 46 5.953125 C 46 5.441406 45.8125 4.921875 45.445313 4.554688 C 45.078125 4.1875 44.558594 4 44.046875 4 Z M 6 6 L 44 6 L 44 44 L 6 44 Z M 27.9375 19.8125 C 25.824219 19.8125 24.746094 21.160156 24.746094 22.78125 C 24.746094 23.695313 25.269531 24.761719 26.652344 25.601563 C 27.503906 26.15625 27.953125 26.515625 27.953125 27.25 C 27.953125 27.910156 27.503906 28.390625 26.574219 28.390625 C 26.003906 28.390625 25.316406 28.226563 24.910156 28 L 24.625 29.695313 C 24.953125 29.890625 25.75 30.101563 26.5625 30.101563 C 28.539063 30.101563 29.90625 28.886719 29.90625 27.042969 C 29.90625 25.976563 29.410156 24.957031 28.074219 24.144531 C 26.980469 23.484375 26.679688 23.171875 26.679688 22.570313 C 26.679688 22.03125 27.085938 21.519531 27.925781 21.519531 C 28.496094 21.519531 28.929688 21.683594 29.214844 21.863281 L 29.53125 20.171875 C 29.230469 19.992188 28.597656 19.8125 27.9375 19.8125 Z M 21.550781 19.902344 L 21.550781 26.875 C 21.550781 28.179688 21.070313 28.40625 20.5 28.40625 C 20.246094 28.40625 20.050781 28.390625 19.855469 28.332031 L 19.6875 29.980469 C 19.914063 30.070313 20.273438 30.128906 20.679688 30.128906 C 22.121094 30.128906 23.53125 29.695313 23.53125 26.785156 L 23.53125 19.902344 Z"/></svg>
